X: 14966
T: Geevagh, The
R: jig
M: 6/8
K: Edorian
Bd|:e2e dBA|AGE GED|~G3 GAB|deB dBd|
e2e dBA|AGE GED|GAB dBd|AFD G2z:|
GBd g2g|f2f edB|GBd efg|f2f edB|
GBd g2g|f2f edB|GAB dBd|AFD G2z:|

